X: 1
T: Òran Na Cloiche
R: reel
M: 4/4
L: 1/8
K: Amin
"Am"cAGA c2 AG|AAGA c2 de|"C"ggag e2 de|"Dm"dcAE "Em"G4|
"Am"AAGA c2 AG|AAGA c2 cd|"C"edeg e2 dc|"Dm"d2 eg "G"e2 g2||
"Am"e2 dc c2 A2|"G"G2 EG "Am"A4|"C"c2 de g2 ed|"Dm"c2 cd "Em"e2 g2|
"Am"e2 dc c2 A2|"G"G2 EG "Am"A4-|A8||
